RestoDelMundo/Paises Bajos/Otras Categorias/Vv De Meern.svg

<svg xmlns="http://www.w3.org/2000/svg" viewBox="0 0 612 792"><path fill="#f58220" d="M365.168 312.984c-100.172 0-181.377 81.205-181.377 181.377 0 99.511 80.143 180.292 179.403 181.351-77.292-6.748-137.909-71.059-137.909-149.41 0-82.847 67.768-150.007 151.362-150.007 83.596 0 151.36 67.161 151.36 150.007 0 38.826-14.885 74.209-39.307 100.847 35.579-33.114 57.843-80.349 57.843-132.788.001-100.172-81.203-181.377-181.375-181.377"/><path fill="#f58220" d="M142.725 462.579c0-119.003 97.292-215.472 217.31-215.472 120.015 0 217.309 96.47 217.309 215.472 0 54.988-20.783 105.155-54.974 143.227 42.154-43.005 68.13-101.72 68.13-166.471 0-131.837-107.645-238.713-240.43-238.713-132.784 0-240.426 106.876-240.426 238.713 0 131.841 107.643 238.716 240.426 238.716 1.664 0 3.322-.028 4.979-.062-117.715-2.629-212.324-98.059-212.324-215.41"/><path d="m72.333 357.588-44.128 4.771-3.705 12.108 70.96-7.723 1.25-4.095-54.643-45.596-3.672 12ZM93.9 332.375c-1.684.928-2.858 2.371-3.428 4.237-.574 1.886-.41 3.703.494 5.404.905 1.705 2.321 2.859 4.207 3.436 1.866.571 3.664.391 5.342-.531a6.9 6.9 0 0 0 2.571-2.422 7.7 7.7 0 0 0 .799-1.784c.581-1.899.441-3.723-.415-5.425-.871-1.726-2.259-2.891-4.131-3.461-1.891-.583-3.721-.398-5.439.546M95.164 304.897l-44.223-3.779-5.96 11.171 71.123 6.03 2.014-3.777-44.881-55.231-5.906 11.074ZM121.166 284.292c-1.829.585-3.257 1.782-4.172 3.499-.929 1.737-1.115 3.555-.555 5.401.562 1.846 1.73 3.25 3.469 4.177 1.724.918 3.522 1.088 5.345.502a6.9 6.9 0 0 0 2.988-1.883 7.7 7.7 0 0 0 1.128-1.596c.935-1.755 1.149-3.574.633-5.404-.523-1.86-1.663-3.27-3.391-4.19-1.745-.933-3.577-1.102-5.445-.506M154.739 196.551c-5.402-1.75-10.787-1.931-16-.533-5.175 1.381-10.738 4.876-16.576 10.408l-15.219 14.425 42.319 46.733 14.354-13.603c3.802-3.605 6.218-6.107 7.393-7.652 1.176-1.554 2.29-3.479 3.3-5.699a30.3 30.3 0 0 0 2.894-12.144 31.8 31.8 0 0 0-1.976-12.148 32.5 32.5 0 0 0-6.434-10.6c-3.938-4.348-8.668-7.44-14.055-9.187m-4.533 55.068-27.628-30.51 6.307-5.975c2.793-2.646 4.927-4.463 6.347-5.4 1.385-.914 3.058-1.675 5.008-2.277a18 18 0 0 1 5.843-.808c5.329.128 9.877 2.351 13.902 6.796 4.12 4.549 6.09 9.467 6.027 15.023a19 19 0 0 1-.737 4.895c-.459 1.565-1.289 3.303-2.462 5.169-1.184 1.877-3.243 4.212-6.122 6.942zM199.699 214.023l-7.963-13.631 21.883-12.781-5.733-9.819-21.883 12.779-7.784-13.324 22.647-13.227-5.71-9.781-33.265 19.429 32.9 56.336 33.994-19.855-5.711-9.777ZM285.215 121.78l-12.754 28.596-25.309-18.56-10.565 2.786 16.654 63.169 11.891-3.134-11.471-43.511 21.447 15.819 3.183-.84 10.654-24.234 11.46 43.466 11.935-3.148-16.656-63.168ZM328.501 169.82l-.745-15.769 25.314-1.195-.535-11.357-25.316 1.195-.726-15.416 26.197-1.238-.531-11.312-38.484 1.817 3.077 65.166 39.322-1.857-.532-11.311ZM373.335 169.906l1.553-15.709 25.218 2.491 1.119-11.316-25.219-2.492 1.516-15.356 26.1 2.577 1.115-11.27-38.338-3.789-6.413 64.923 39.175 3.872 1.111-11.27ZM446.547 181.846c-1.729-6.385-3.169-10.839-4.387-13.616-.767-1.751-1.615-3.342-2.542-4.762 2.686-.513 5.101-.654 7.469-1.595 3.529-1.403 6.268-4.996 7.379-8.663 1.637-5.395 2.406-10.209-.507-14.649-2.845-4.336-10.938-9.287-17.279-11.327l-16.436-5.277-18.41 60.835 11.734 3.767 7.592-25.083.559.182c2.43.781 4.159 1.636 4.899 2.378.865.874 1.785 2.186 2.733 3.904.976 1.767 1.974 4.1 2.935 6.808l2.844 10.567.976 2.844c.124.331.201.56.258.768l1.697 5.498 13.385 3.917-2.225-7.657c-.733-2.015-1.63-4.99-2.674-8.839m-8.427-30.371c-1.078.942-2.318 1.482-3.79 1.645-1.064.121-3.395-.072-8.41-1.682l-1.568-.507 4.532-14.992.899.288c3.908 1.258 6.645 2.43 8.115 3.505 1.3.955 2.147 2.113 2.576 3.547.446 1.48.441 2.933-.017 4.442-.471 1.561-1.237 2.789-2.337 3.754M503.209 228.068l31.767-56.913-10.099-5.397-21.97 39.365-11.45-57.228-8.248-4.404-31.765 56.912 10.026 5.356 21.772-39.012 11.345 56.712Z"/><circle cx="375.435" cy="526.016" r="132.183" transform="rotate(-45 375.435 526.016)"/><path fill="#fff" d="M382.921 605.566v-27.369l46.277-33.404 26.86 6.075 1.906 31.544-44.94 33.934ZM345.586 619.321l-49.147-35.318v-33.399l30.794-9.057 47.132 37.928v26.382ZM289.678 471.404l32.932-9.44 16.53 23.957-14.916 47.593-30.802 9.06-21.529-22.017ZM346.896 434.472h59.198l14.945 23.789-16.198 22.412h-58.928l-16.245-23.546ZM461.284 471.674l15.027 50.092-17.759 20.893-25.635-5.797-19.889-52.912 14.937-20.666ZM266.266 527.038l21.618 22.11v37.035l-16.851 11.894c-13.125-18.957-21.227-41.642-22.361-66.119zM466.621 583.815l-2.112-34.953 17.277-20.325 20.362 4.47a126.05 126.05 0 0 1-18.286 58.897zM477.172 450.232l-12.93 13.36-35.336-8.896-15.938-25.366 6.906-22.186c22.992 8.623 42.84 23.73 57.298 43.088M329.876 407.57l10.198 21.737-18.234 23.978-37.028 10.613-12.442-11.844c14.33-19.912 34.279-35.518 57.506-44.484M343.691 648.903l5.158-21.664 30.013-14.04 30.049 10.76 7.25 22.262c-12.788 4.344-26.487 6.702-40.727 6.702a126.7 126.7 0 0 1-31.743-4.02"/></svg>

<svg enable-background="new 0 0 612 792" viewBox="0 0 612 792" xmlns="http://www.w3.org/2000/svg"><path d="M 365.168 312.984 c -100.172 0 -181.377 81.205 -181.377 181.377 c 0 99.511 80.143 180.292 179.403 181.351 c -77.292 -6.748 -137.909 -71.059 -137.909 -149.41 c 0 -82.847 67.768 -150.007 151.362 -150.007 c 83.596 0 151.36 67.161 151.36 150.007 c 0 38.826 -14.885 74.209 -39.307 100.847 c 35.579 -33.114 57.843 -80.349 57.843 -132.788 C 546.544 394.189 465.34 312.984 365.168 312.984" fill="#f58220"/><path d="M 142.725 462.579 c 0 -119.003 97.292 -215.472 217.31 -215.472 c 120.015 0 217.309 96.47 217.309 215.472 c 0 54.988 -20.783 105.155 -54.974 143.227 c 42.154 -43.005 68.13 -101.72 68.13 -166.471 c 0 -131.837 -107.645 -238.713 -240.43 -238.713 c -132.784 0 -240.426 106.876 -240.426 238.713 c 0 131.841 107.643 238.716 240.426 238.716 c 1.664 0 3.322 -.028 4.979 -.062 C 237.334 675.36 142.725 579.93 142.725 462.579" fill="#f58220"/><path d="M 72.333 357.588 L 28.205 362.359 L 24.5 374.467 L 95.46 366.744 L 96.71 362.649 L 42.067 317.053 L 38.395 329.053 Z"/><path d="M 93.9 332.375 c -1.684 .928 -2.858 2.371 -3.428 4.237 c -.574 1.886 -.41 3.703 .494 5.404 c .905 1.705 2.321 2.859 4.207 3.436 c 1.866 .571 3.664 .391 5.342 -.531 c 1.076 -.594 1.942 -1.408 2.571 -2.422 c .332 -.539 .602 -1.138 .799 -1.784 c .581 -1.899 .441 -3.723 -.415 -5.425 c -.871 -1.726 -2.259 -2.891 -4.131 -3.461 C 97.448 331.246 95.618 331.431 93.9 332.375"/><path d="M 95.164 304.897 L 50.941 301.118 L 44.981 312.289 L 116.104 318.319 L 118.118 314.542 L 73.237 259.311 L 67.331 270.385 Z"/><path d="M 121.166 284.292 c -1.829 .585 -3.257 1.782 -4.172 3.499 c -.929 1.737 -1.115 3.555 -.555 5.401 c .562 1.846 1.73 3.25 3.469 4.177 c 1.724 .918 3.522 1.088 5.345 .502 c 1.17 -.374 2.176 -1.008 2.988 -1.883 c .43 -.463 .809 -1.001 1.128 -1.596 c .935 -1.755 1.149 -3.574 .633 -5.404 c -.523 -1.86 -1.663 -3.27 -3.391 -4.19 C 124.866 283.865 123.034 283.696 121.166 284.292"/><path d="M 154.739 196.551 c -5.402 -1.75 -10.787 -1.931 -16 -.533 c -5.175 1.381 -10.738 4.876 -16.576 10.408 l -15.219 14.425 l 42.319 46.733 l 14.354 -13.603 c 3.802 -3.605 6.218 -6.107 7.393 -7.652 c 1.176 -1.554 2.29 -3.479 3.3 -5.699 c 1.8 -3.81 2.772 -7.898 2.894 -12.144 c .138 -4.141 -.528 -8.228 -1.976 -12.148 c -1.449 -3.92 -3.612 -7.485 -6.434 -10.6 C 164.856 201.39 160.126 198.298 154.739 196.551 M 150.206 251.619 l -27.628 -30.51 l 6.307 -5.975 c 2.793 -2.646 4.927 -4.463 6.347 -5.4 c 1.385 -.914 3.058 -1.675 5.008 -2.277 c 1.924 -.594 3.887 -.865 5.843 -.808 c 5.329 .128 9.877 2.351 13.902 6.796 c 4.12 4.549 6.09 9.467 6.027 15.023 c -.033 1.681 -.283 3.327 -.737 4.895 c -.459 1.565 -1.289 3.303 -2.462 5.169 c -1.184 1.877 -3.243 4.212 -6.122 6.942 L 150.206 251.619 z"/><path d="M 199.699 214.023 L 191.736 200.392 L 213.619 187.611 L 207.886 177.792 L 186.003 190.571 L 178.219 177.247 L 200.866 164.02 L 195.156 154.239 L 161.891 173.668 L 194.791 230.004 L 228.785 210.149 L 223.074 200.372 Z"/><path d="M 285.215 121.78 L 272.461 150.376 L 247.152 131.816 L 236.587 134.602 L 253.241 197.771 L 265.132 194.637 L 253.661 151.126 L 275.108 166.945 L 278.291 166.105 L 288.945 141.871 L 300.405 185.337 L 312.34 182.189 L 295.684 119.021 Z"/><path d="M 328.501 169.82 L 327.756 154.051 L 353.07 152.856 L 352.535 141.499 L 327.219 142.694 L 326.493 127.278 L 352.69 126.04 L 352.159 114.728 L 313.675 116.545 L 316.752 181.711 L 356.074 179.854 L 355.542 168.543 Z"/><path d="M 373.335 169.906 L 374.888 154.197 L 400.106 156.688 L 401.225 145.372 L 376.006 142.88 L 377.522 127.524 L 403.622 130.101 L 404.737 118.831 L 366.399 115.042 L 359.986 179.965 L 399.161 183.837 L 400.272 172.567 Z"/><path d="M 446.547 181.846 c -1.729 -6.385 -3.169 -10.839 -4.387 -13.616 c -.767 -1.751 -1.615 -3.342 -2.542 -4.762 c 2.686 -.513 5.101 -.654 7.469 -1.595 c 3.529 -1.403 6.268 -4.996 7.379 -8.663 c 1.637 -5.395 2.406 -10.209 -.507 -14.649 c -2.845 -4.336 -10.938 -9.287 -17.279 -11.327 l -16.436 -5.277 l -18.41 60.835 l 11.734 3.767 l 7.592 -25.083 l .559 .182 c 2.43 .781 4.159 1.636 4.899 2.378 c .865 .874 1.785 2.186 2.733 3.904 c .976 1.767 1.974 4.1 2.935 6.808 l 2.844 10.567 l .976 2.844 c .124 .331 .201 .56 .258 .768 l 1.697 5.498 l 13.385 3.917 l -2.225 -7.657 C 448.488 188.67 447.591 185.695 446.547 181.846 M 438.12 151.475 c -1.078 .942 -2.318 1.482 -3.79 1.645 c -1.064 .121 -3.395 -.072 -8.41 -1.682 l -1.568 -.507 l 4.532 -14.992 l .899 .288 c 3.908 1.258 6.645 2.43 8.115 3.505 c 1.3 .955 2.147 2.113 2.576 3.547 c .446 1.48 .441 2.933 -.017 4.442 C 439.986 149.282 439.22 150.51 438.12 151.475"/><path d="M 503.209 228.068 L 534.976 171.155 L 524.877 165.758 L 502.907 205.123 L 491.457 147.895 L 483.209 143.491 L 451.444 200.403 L 461.47 205.759 L 483.242 166.747 L 494.587 223.459 Z"/><ellipse cx="375.435" cy="526.016" rx="132.183" ry="132.183" transform="matrix(.7071 -.7071 .7071 .7071 -261.9874 419.539)"/><path d="M 382.921 605.566 L 382.921 578.197 L 429.198 544.793 L 456.058 550.868 L 457.964 582.412 L 413.024 616.346 Z" fill="#fff"/><path d="M 345.586 619.321 L 296.439 584.003 L 296.439 550.604 L 327.233 541.547 L 374.365 579.475 L 374.365 605.857 Z" fill="#fff"/><path d="M 289.678 471.404 L 322.61 461.964 L 339.14 485.921 L 324.224 533.514 L 293.422 542.574 L 271.893 520.557 Z" fill="#fff"/><path d="M 346.896 434.472 L 406.094 434.472 L 421.039 458.261 L 404.841 480.673 L 345.913 480.673 L 329.668 457.127 Z" fill="#fff"/><path d="M 461.284 471.674 L 476.311 521.766 L 458.552 542.659 L 432.917 536.862 L 413.028 483.95 L 427.965 463.284 Z" fill="#fff"/><path d="M 266.266 527.038 l 21.618 22.11 v 37.035 l -16.851 11.894 c -13.125 -18.957 -21.227 -41.642 -22.361 -66.119 L 266.266 527.038 z" fill="#fff"/><path d="M 466.621 583.815 l -2.112 -34.953 l 17.277 -20.325 l 20.362 4.47 c -1.172 21.478 -7.705 41.549 -18.286 58.897 L 466.621 583.815 z" fill="#fff"/><path d="M 477.172 450.232 l -12.93 13.36 l -35.336 -8.896 l -15.938 -25.366 l 6.906 -22.186 C 442.866 415.767 462.714 430.874 477.172 450.232 z" fill="#fff"/><path d="M 329.876 407.57 l 10.198 21.737 l -18.234 23.978 l -37.028 10.613 l -12.442 -11.844 C 286.7 432.142 306.649 416.536 329.876 407.57 z" fill="#fff"/><path d="M 343.691 648.903 l 5.158 -21.664 l 30.013 -14.04 l 30.049 10.76 l 7.25 22.262 c -12.788 4.344 -26.487 6.702 -40.727 6.702 C 364.477 652.923 353.84 651.526 343.691 648.903 z" fill="#fff"/></svg>
